icon-themes/sifr_svg/cmd/lc_zoomnext.svg

<svg viewBox="0 0 24 24" xmlns="http://www.w3.org/2000/svg"><path d="m4.59375 3c-.8836 0-1.59375.73199-1.59375 1.625v14.75c0 .89301.71015 1.625 1.59375 1.625h14.8125c.8836 0 1.59375-.73199 1.59375-1.625v-14.75c0-.89301-.71015-1.625-1.59375-1.625zm3.40625 2h.4140625.5859375c.30945 0 .55232.0903.75.28125l7.25 5.804688v1.783203l-7.25 5.849609c-.19768.19095-.3158059.28125-.75.28125h-.5859375-.4140625v-1c0-.270652.12983-.52846.3125-.71875l6.6875-5.28125-6.6875-5.28125c-.18267-.19029-.3125-.46186-.3125-.71875z" fill="#555753"/></svg>

<svg xmlns="http://www.w3.org/2000/svg" viewBox="0 0 24 24">
  <path
     style="fill:#555753"
     d="M 4.59375 3 C 3.71015 3 3 3.73199 3 4.625 L 3 19.375 C 3 20.26801 3.71015 21 4.59375 21 L 19.40625 21 C 20.28985 21 21 20.26801 21 19.375 L 21 4.625 C 21 3.73199 20.28985 3 19.40625 3 L 4.59375 3 z M 8 5 L 8.4140625 5 L 9 5 C 9.30945 5 9.55232 5.0903 9.75 5.28125 L 17 11.085938 L 17 12.869141 L 9.75 18.71875 C 9.55232 18.9097 9.4341941 19 9 19 L 8.4140625 19 L 8 19 L 8 18 C 8 17.729348 8.12983 17.47154 8.3125 17.28125 L 15 12 L 8.3125 6.71875 C 8.12983 6.52846 8 6.25689 8 6 L 8 5 z "
     />
</svg>
